X:1
T:Ouvrture
T:Sarabande
T:Siebente Suite in g moll - HWV 432
T:G. F. Handel (1685-1759) 
%%score { ( 1 2 5 ) | ( 3 4 ) }
L:1/8
Q:1/4=114
M:3/2
K:Bb
V:1 treble nm="Piano" snm="Pno."
V:2 treble 
V:5 treble 
V:3 bass 
V:4 bass 
V:1
"^Moderato" d4 d4 z2 g2 | c4 c4 z2 d2 | G4 G4 z2 A2 | ^F4 D4 z4 | [df]4 d4 e4 | Tc6 Bc d2 A2 | %6
 B2 c2 d4 Pc2 B2 | [DFB]12 :: d4 T=e6 de | f4 c6 f2 | f2 g2 T[B=e]8 | f4 T[=Bd]8 | g4 _a4 z2 =B2 | %13
 c4 z2 f2 e4- | e2 d2 Td6 c2 | [EGc]12 | e4 e6 f2 | [Bd]4 d6 e2 | c2 d2 TB6 A2 | A4 A4 z2 d2 | %20
 e2 A2 A4 z2 ^f2 | g2 c2 c4 z2 d2 | e2 A2 B4 PA2 G2 | [B,DG]12 | f4 f6 g2 | e4 d8 | c2 d2 TB6 A2 | %27
 A4 A4 z2 d2 | e2 A2 A4 z2 ^f2 | g2 c2 c4 z2 d2 | e2 A2 B4 PA2 G2 | [B,DG]12 :| %32
V:2
 B4 B4 x2 [Be]2 | A4 A4 x2 [FB]2 | x12 | x12 | A4 =B4 c4 | A8 x4 | x12 | x12 :: x4 G8 | x12 | %10
 d4 x8 | A4 x8 | c8 x2 F2 | E4 x2 [_Ac]2 [Gc]4 | A4 x2 G4 x2 | x12 | [Gc]4 [Fc]8 | F4 [GB]8 | %18
 [^FA]4 G8 | ^F4 F4 x4 | x12 | x12 | x12 | x12 | [Ad]4 [Gd]4 =B4 | [Gc]4 [^FA]8 | G2 A2 [DG]8 | %27
 ^F4 F4 x4 | x12 | x12 | x12 | x12 :| %32
V:3
 G,4 F,4 z2 E,2 | F,4 F,4 z2 B,,2 | B,4 B,4 z2 C,2 | A,4 ^F,4 z4 | D,4 G,4 C,4 | F,8 B,2 F,2 | %6
 B,4 B,4 A,4 | B,,12 :: D4 C8 | [A,C]8 z2 D2 | B,4 G,4 C4 | F,4 G,8 | E,4 F,4 z2 G,2 | %13
 _A,4 z2 F,2 C4 | C4 C4 =B,4 | C,12 | C4 A,6 F,2 | B,4 G,6 G,2 | A,2 ^F,2 G,4 C,4 | D,8 z2 G,2 | %20
 G,4 C8 | B,2 A,2 G,8 | G,4- G,4 ^F,4 | G,12 | D4 =B,4 TG,4 | C,4 D,8 | =E,2 ^F,2 G,4 G,,4 | %27
 D,4 D,,4 z2 G,2 | G,4 C8 | B,2 A,2 G,8 | G,4- G,4 ^F,4 | G,12 :| %32
V:4
 x12 | x12 | E,4 D,4 x4 | D,4 x8 | x12 | x12 | G,2 E,2 F,8 | x12 :: B,4 B,8 | x12 | x12 | x12 | %12
 x12 | x12 | F,4 G,8 | x12 | x12 | x12 | x4 D4 x4 | x10 B,,2 | C,8 D,4 | E,8 B,,4 | C,4 D,8 | %23
 z4 G,,8 | x12 | x12 | x12 | x10 B,,2 | C,8 D,4 | E,8 B,,4 | C,4 D,8 | z4 G,,8 :| %32
V:5
 x12 | x12 | x12 | x12 | x12 | x12 | x12 | x12 :: x12 | x12 | G4 x8 | x12 | x12 | x12 | x12 | x12 | %16
 x12 | x12 | x12 | x12 | x12 | x12 | x12 | x12 | x12 | x12 | x12 | x12 | x12 | x12 | x12 | x12 :| %32

